X: 28357
T: Muineira De Casu
R: jig
M: 6/8
K: Gmajor
|:"A"Acd efe|"A"dcd edc|"A"Acd efe|"A"dcB c2A|
"A"Acd efe|"A"dcd edc|"A"Acd efe|"A"dcB A3:|
|:"Dm7"a^gf ecf|"Dm7"ecd edc|"A"Acd efe|"Bm7"dcd "A"e3|
"Dm7"a^gf ecf|"Dm7"ecd edc|"A"Acd "E"efe|"E"dcB "A"A3:|
|:"A"ABc "D"d2 d|"D"dcd "A"edc|"A"ABc "E"d2 d|"E"dcB "A"c2A|
"A"ABc "D"d2 d|"D"dcd "A"edc|"A"Acd "E"efe|"E"dcB "A"A3:|

